X: 24
T: Swallow's Tail, The
Z: leprecawn
S: https://thesession.org/tunes/105#setting49502
R: reel
M: 4/4
L: 1/8
K: Ador
|:gf|eA cBA eA cBA|Bdef gedB|G2BG dGBG|Bdef g2gf|
eA (3cBA eA (3cBA|Bdef g2fg|afge dBGB|AcBG A2:|
|:Bd|eaab aged|Bdef gedB|G2 BG DGBG|Bdef g2fg|
eaab aged|Bdef g2fg|afge dBGB|AcBG A2:|

